X:1
T:Solemn Melody
T:Solemn Melody
T:Walford Davies
C:Walford Davies
%%score 1 2 3
L:1/8
M:4/4
K:F
V:1 treble nm="Flute" snm="Fl."
V:2 treble transpose=-2 nm="B♭ Clarinet" snm="B♭ Cl."
V:3 treble transpose=-2 nm="B♭ Clarinet" snm="B♭ Cl."
V:1
 z!mp! CF"_cresc."A cfac' |!ff! f' z!>(! A4 A2!>)! |"_dim." A4 G4 |!pp!!>(! F2 z2 E4-!>)! | %4
 E6!pp! C2 | D2 C2 D2 E2 | F2 F2!mp! E2 C2 | D2 C2 F2 A!ff!G | F6 a2 | b2 a2 g2 fg | c'2 d2 e2 ag | %11
 f2 d2 B2 cB | A2 d2 c2!mp! A2- | A2 A4 A2- | A2!<(! A2 ^G2 A=B!<)! | c2 A2 G2 c2- | %16
"_dim." c4!pp! a3 g/f/ | e2 fd B2 AG |!>(! F2 A2!mp! E2 A2!>)! | ^G2 =G2!ppp! F2 _E2 | %20
 D2 F2"_dim." d2 cE | F6!f! C2 | D2 C2 D2 E2 | D2 F2 E2 C2 | D2 C2 D2 E2 | C2 D2 C2!ff! f2 | %26
 g2 a2 c'bag | f2 a2 g2 c2 |!<(! d2 f2 d'2 c'e!<)! |"_dim." f6!f! F^G | A2 D2 C2 D2 | %31
 c2 E^F ^G2 A=B | c2 cd e2 c2- | c2!ff! !>!e2 !>!a3 f | d2 f2 !>!c'bag | f2 a2 e4- | e4 f4 | %37
!ff! d'2 c'2 b2 ag | f2 f4 ed |"_dim." c6 BA | A2 G4!p! F2 | D4!>(! C4!>)! | z!pp! CFA cfac' | %43
!>(! f'8!>)! |] %44
V:2
 G,=B,!mp!D"_cresc."G =Bdg=b |!ff! d' z!>(! D4 D2!>)! |"_dim." ^D8- |!pp!!>(! D4 =D4-!>)! | %4
 D6!p! G2 | E2 G2 c2 =BA | G2 =B2 A2 D2 | E2 G2 e2 dc | =B6 G2 | E2 G^F E2 F2 | =B,2 ^C2 D2 c2 | %11
 =B2 G4 BA | G6 =B,^C | D2 E2 ^F2 G2 | ^F2!<(! =B,2 ^C2 DE!<)! | ^F2 G2 A2 =B2 | %16
"_dim." ^F4!pp! =B4- | B2 =BG E2 ^F2 |!>(! E2 E2 ^D2 =D2!>)! | ^C2 =C2!ppp! =B,2 B,2 | %20
 E2 D2"_dim." C2 D2 | G,6!f! G2 | E2 G2 c2 =BA | G2 =B2 A2 D2 | E2 G2 e2 dc | =B6!ff! d2 | %26
 g2 d2 A2 dc | =B2 G2 ^F2 GF |!<(! G2 d2 c2 ^FA!<)! |"_dim." =B2 c2 B2!f! B^c | d2 e2 ^f2 g2 | %31
 ^f2 =B2 ^c2 de | ^f2 g2 a2 =b2 | ^f2!ff! f2 =B2 =f2 | e2 d2 e2 ^d2 | =B2 e2 ^d2 =d2 | %36
 ^c2 =c2 G2 F2 |!ff! G2 G2 E2 DC | =B,2 C4 DC |"_dim." c2 =B4 E^D | ^F6!p! =B,2 | %41
 C2 G,2!>(! ^F,2 F,2!>)! | D4 =B4- |!>(! B8!>)! |] %44
V:3
"_cresc." G,8- | G, z!>(! G,4 G,A,!>)! |"_dim." =B,4 C4- |!pp!!>(! C8-!>)! | C6!pp! =B,2 | %5
 C2 =B,2 A,2 D2 | E2 ^C2 D2 =B,2 | C2 =B,2 A,2 D2 | G,6 G,2 | A,2 =B,2 C2 B,A, | G,2 =B,2 A,2 D2 | %11
 E,2 G,2 E2 D^F, | G,6!mf! G,A, | =B,2 G,2 D2 E,2 | ^F,2!<(! G,2 F,2 =B,A,!<)! | %15
 D2 =B,2 ^F,2 G,A, |"_dim." =B,4!pp! G4 | D2 E2 A,2 D2 |!>(! E2 G,A, =B,2 DE!>)! | %19
 ^F2 D2!ppp! G,2 G,2 | C2 =B,2"_dim." A,2 D2 | G,6!f! =B,2 | C2 =B,2 A,2 D2 | E2 A,2 D2 =B,2 | %24
 C2 =B,2 A,2 D2 | G,6!ff! =B,2 | C2 =B,2 A,2 D2 | E2 ^C2 D2 =B,2 |!<(! C2 =B,2 A,2 D2!<)! | %29
"_dim." F2 EC G2!f! GF | =B,2 G2 ^F2 EG | =B2 B2 ^F2 BA | d2 =B2 A2 G2 | D2!ff! ^F,2 =B,3 B, | %34
 C2 =B,2 A,2 B,C | E,2 G,A, =B,^CDE | ^F^AdD z DGG, |!ff! C2 =B,2 A,2 D2 | E2 (3z G,=B, (3CEG =Bc | %39
"_dim." G2 G,4 A,=B, | D2 D4!p! E,2 | A,2 D2!>(! D2 z2!>)! | G,8- |!>(! G,8!>)! |] %44

